X:0156
T:Quick March Scots Royals.
N:the c in bar 12 is printed as a sharp
M:2/4
L:1/8
Q:1/4=84
I: :: ::
Z:Jack Campin * www.campin.me.uk * 2009
K:D
(B/c/)|d2 A2|FD (F/G/A/F/)| E=c```````Gc|E=C (E/F/G/E/)|
       d2 A2|F>E`DF       |(G/F/E/D/) CE|D2   D       :|
(a/g/)|f>eda|fd (f/g/a/f/)| e>d``````=cg|e=c (e/f/g/e/)|
       fd`ge|af``ge       |(g/f/e/d/) ce|d2   d       :|


